X: 1
T: Hollow Rock, The
M: 3/4
L: 1/8
R: waltz
K: Cmaj
CD|&quot;C&quot;E2D2C2|&quot;F&quot;F2A2 GF|&quot;C&quot;E2G2c2|&quot;Am&quot;e4 ga|
&quot;G&quot;g2f2e2|&quot;F&quot;f2A2B2|&quot;C&quot;e2c2A2|&quot;G&quot;G4 CD|
&quot;C&quot;E2D2C2|&quot;F&quot;F2A2 GF|&quot;C&quot;E2G2c2|&quot;Am&quot;e4 ga|
&quot;G&quot;g2f2e2|&quot;F&quot;f2A2B2|&quot;C&quot;c3 d cB|c4::
gg|&quot;C&quot;c'2e2e2|&quot;F&quot;b2f2f2|&quot;C&quot;a2g2^f2|g4 ga|
&quot;G&quot;g2f2e2|&quot;F&quot;f2A2B2|&quot;C&quot;e2c2A2|&quot;G&quot;G4 gg|
&quot;C&quot;c'2e2e2|&quot;F&quot;b2f2f2|&quot;C&quot;a2g2^f2|g4 ga|
&quot;G&quot;g2f2e2|&quot;F&quot;f2A2B2|&quot;C&quot;c3 d cB|c4:|
